X: 39549
T: Tea Leaf, The
R: reel
M: 4/4
K: Eminor
|:E2BE FEDF|E2BE GBdB|E2BE FEDF|G2BG FdAF|
E2BE FEDF|E2BE FAdA|G2GF GBAG|FdAF DFAF:|
|:GEBE cAFA|GE~E2 ~B3A|GEBE cAFA|GdBG FdAF|
GEBE cAFA|GE~E2 ~B3A|G2BG DFAF|GdBG FdAF:|

